svgs/solid/spaghetti-monster-flying.svg

<svg xmlns="http://www.w3.org/2000/svg" viewBox="0 0 640 512"><!-- Font Awesome Pro 6.0.0-alpha2 by @fontawesome - https://fontawesome.com License - https://fontawesome.com/license (Commercial License) --><path d="M624.5 347.625C591.875 335.125 567.125 351.875 549.125 364.125C532.125 375.625 525.875 378.5 517.75 375.5C509.625 372.375 506.875 366.125 501.875 346.125C498.5 333 494.375 316.75 483.875 303.5C486.125 300.5 488.375 297.625 490.25 294.875C500.5 304.5 513.75 312 532 312C566 312 582.875 286.25 594 269.125C604.625 253 609 248 616 248C629.25 248 640 237.25 640 224S629.25 200 616 200C582 200 565.125 225.75 554 242.875C543.375 259 539 264 532 264C514.75 264 494.5 202.625 434.75 162.125L452 127.625C485.375 125.5 512 98.001 512 64C512 28.625 483.375 0 448 0S384 28.625 384 64C384 77 388 89.125 394.625 99.25L376.5 135.5C359.5 130.875 340.875 128 320 128S280.5 130.875 263.5 135.5L245.375 99.25C252 89.125 256 77 256 64C256 28.625 227.375 0 192 0S128 28.625 128 64C128 98.001 154.5 125.5 188 127.625L205.25 162.125C145.625 202.5 125.125 264 108 264C101 264 96.625 259 85.999 242.875C74.875 225.75 57.999 200 24 200C10.75 200 0 210.75 0 224S10.75 248 24 248C31 248 35.375 253 45.999 269.125C57.125 286.25 73.999 312 108 312C126.25 312 139.5 304.5 149.75 294.875C151.625 297.625 153.875 300.5 156.125 303.5C145.625 316.75 141.5 333 138.125 346.125C133.125 366.125 130.375 372.375 122.25 375.5C114.125 378.5 107.875 375.625 90.875 364.125C72.75 351.875 48.125 335.25 15.5 347.625C3.125 352.375 -3.125 366.25 1.625 378.625C6.25 391 20.25 397.25 32.5 392.5C40.75 389.5 46.875 392.375 64 403.875C77.5 413 94.75 424.75 116.375 424.75C123.5 424.75 131.25 423.5 139.375 420.375C172 407.875 179.375 379 184.625 357.875C186.875 349.125 188.625 343.375 190.625 339C207.25 352.625 227.625 364.875 252.25 373.25C242.25 410.25 220.125 464 192 464C178.75 464 168 474.75 168 488S178.75 512 192 512C258.75 512 289 423.375 299.375 382.875C306.125 383.5 312.875 384 320 384S333.875 383.5 340.625 382.875C351 423.375 381.25 512 448 512C461.25 512 472 501.25 472 488S461.25 464 448 464C420 464 397.75 410.25 387.75 373.25C412.5 364.875 432.75 352.625 449.375 339C451.375 343.375 453.125 349.125 455.375 357.875C460.75 379 468 407.875 500.625 420.375C508.875 423.5 516.5 424.75 523.625 424.75C545.25 424.75 562.5 413 576.125 403.875C593.125 392.375 599.375 389.5 607.5 392.5C619.875 397.25 633.75 391 638.375 378.625C643.125 366.25 637 352.375 624.5 347.625ZM192 80C183.125 80 176 72.875 176 64S183.125 48 192 48S208 55.125 208 64S200.875 80 192 80ZM448 48C456.875 48 464 55.125 464 64S456.875 80 448 80S432 72.875 432 64S439.125 48 448 48Z"/></svg>

<svg xmlns="http://www.w3.org/2000/svg" viewBox="0 0 640 512"><!--! Font Awesome Pro 6.0.0-alpha3 by @fontawesome - https://fontawesome.com License - https://fontawesome.com/license (Commercial License) --><path d="M624.5 347.7c-32.63-12.5-57.38 4.241-75.38 16.49c-17 11.5-23.25 14.37-31.38 11.37c-8.125-3.125-10.88-9.358-15.88-29.36c-3.375-13.12-7.5-29.47-18-42.72c2.25-3 4.5-5.875 6.375-8.625C500.5 304.5 513.8 312 532 312c33.1 0 50.87-25.75 61.1-42.88C604.6 253 609 248 616 248C629.3 248 640 237.3 640 224s-10.75-24-24-24c-34 0-50.88 25.75-62 42.88C543.4 259 539 264 532 264c-17.25 0-37.5-61.38-97.25-101.9L452 127.6C485.4 125.5 512 97.97 512 63.97C512 28.6 483.4 0 448 0s-64 28.6-64 63.97c0 13 4 25.15 10.62 35.28L376.5 135.5C359.5 130.9 340.9 128 320 128S280.5 130.9 263.5 135.5L245.4 99.25C252 89.13 256 76.97 256 63.97C256 28.6 227.4 0 192 0S128 28.6 128 63.97C128 97.97 154.5 125.5 188 127.6l17.25 34.5C145.6 202.5 125.1 264 108 264c-7 0-11.31-5-21.94-21.12C74.94 225.8 57.1 200 24 200C10.75 200 0 210.8 0 224s10.75 24 24 24c7 0 11.37 5 21.1 21.12C57.12 286.3 73.1 312 108 312c18.25 0 31.5-7.5 41.75-17.12C151.6 297.6 153.9 300.5 156.1 303.5c-10.5 13.25-14.62 29.59-18 42.72c-5 20-7.75 26.23-15.88 29.36c-8.125 3-14.37 .1314-31.37-11.37c-18.12-12.25-42.75-28.87-75.38-16.49c-12.38 4.75-18.62 18.61-13.88 30.98c4.625 12.38 18.62 18.62 30.88 13.87C40.75 389.6 46.88 392.4 64 403.9c13.5 9.125 30.75 20.86 52.38 20.86c7.125 0 14.88-1.248 23-4.373c32.63-12.5 40-41.34 45.25-62.46c2.25-8.75 4-14.49 6-18.86c16.62 13.62 37 25.86 61.63 34.23C242.3 410.3 220.1 464 192 464c-13.25 0-24 10.74-24 23.99S178.8 512 192 512c66.75 0 97-88.55 107.4-129.1C306.1 383.6 312.9 384 320 384s13.88-.4706 20.62-1.096C351 423.4 381.3 512 448 512c13.25 0 24-10.74 24-23.99S461.3 464 448 464c-28 0-50.25-53.74-60.25-90.74c24.75-8.375 45-20.56 61.63-34.19c2 4.375 3.75 10.11 6 18.86c5.375 21.12 12.62 49.96 45.25 62.46c8.25 3.125 15.88 4.373 23 4.373c21.62 0 38.83-11.74 52.46-20.86c17-11.5 23.29-14.37 31.42-11.37c12.38 4.75 26.25-1.492 30.88-13.87C643.1 366.3 637 352.5 624.5 347.7zM192 79.97c-8.875 0-16-7.125-16-16S183.1 47.98 192 47.98s16 7.118 16 15.99S200.9 79.97 192 79.97zM448 47.98c8.875 0 16 7.118 16 15.99s-7.125 16-16 16s-16-7.125-16-16S439.1 47.98 448 47.98z"/></svg>
